!!!!SEGMENT: pl-kk--kk-i-388--007_anonim--offertorium-laudate-dominus.krn
!!!id: 18xx:1404
!!!COM: Anonim
!!!COM-rism: pe30004985
!!!CDT:
!!!CNT:
!!!OTL: Offertorium – Laudate Dominus
!!!PDT:
!!!SMS-siglum: PL-Kk
!!!SMS-shelfmark: Kk.I.388
!!!NIFC-rismID: 1001140864
!!!URL-scan: http://repozytorium.nifc.pl/skany/pl-kk-nut--i-388
!!!ONB-nifc:
!!!SMS-variant:
!!!SMS-altvar:
**kern	**text	**kern	**text	**kern	**text	**kern	**text
*part4	*part4	*part3	*part3	*part2	*part2	*part1	*part1
*staff4	*staff4	*staff3	*staff3	*staff2	*staff2	*staff1	*staff1
*I"Basso.	*	*I"Tenore.	*	*I"Alto.	*	*I"Soprano.	*
*I'B	*	*I'T	*	*I'A	*	*I'S	*
*clefF4	*	*clefC4	*	*clefC3	*	*clefC1	*
*k[f#]	*	*k[f#]	*	*k[f#]	*	*k[f#]	*
*M4/4	*	*M4/4	*	*M4/4	*	*M4/4	*
*met(c)	*	*met(C.)	*	*met(c)	*	*met(c)	*
*all\right	*	*all\right	*	*all\right	*	*all\right	*
!LO:TX:a:t=in G.♯	!	!LO:TX:a:t=in G ♯	!	!	!	!	!
!LO:TX:a:t=No 7.my Offertorium	!	!LO:TX:a:t=No 7.my Offertorium	!	!LO:TX:a:t=No 7. Offertorium	!	!LO:TX:a:t=No 7. Offertorium.	!
4GG/	Lau-	4B\	Lau-	4g\	Lau-	4dd\	Lau-
=1	=1	=1	=1	=1	=1	=1	=1
*	*	*2\right	*	*2\right	*	*2\right	*
2.GG/	-da-	2.B\	-da-	2.g\	-da-	2.dd\	-da-
4GG/	-te	4B\	-te	4g\	-te	4dd\	-te
=2	=2	=2	=2	=2	=2	=2	=2
4.GG/	Do-	4.B\	Do-	4.g\	Do-	4.dd\	Do-
8GG/	-mi-	8B\	-mi-	8g\	-mi-	8dd\	-mi-
4GG/	-num	4B\	-num	4g\	-num	4dd\	-num
8GG/	om-	8B\	om-	8g\	om-	8dd\	om-
8GG/	-nes	8B\	-nes	8g\	-nes	8dd\	-nes,
=3	=3	=3	=3	=3	=3	=3	=3
4BB/	gen-	4B\	gen-	4a\	gen-	4dd#X\	gen-
4E\	-tes,	4B\	-tes,	4g\	-tes,	4ee\	-tes,
4r	.	4r	.	4r	.	4r	.
4C/	lau-	4c\	lau-	4g\	lau-	4ee\	lau-
!LO:LB:g=original	!	!	!	!	!	!LO:LB:g=original	!
=4	=4	=4	=4	=4	=4	=4	=4
2.C/	-da-	2.c\	-da-	2.g\	-da-	2.ee\	-da-
4C/	-te	4c\	-te	4g\	-te	4ee\	-te
!	!	!LO:LB:g=original	!	!LO:LB:g=original	!	!	!
=5	=5	=5	=5	=5	=5	=5	=5
4.C/	e-	4.c\	e-	4.g\	e-	4.ee\	e-
8C/	-um	8c\	-um	8g\	-um	8ee\	-um
4C/	om-	4c\	om-	4g\	om-	4ee\	om-
4AA/	-nes	4e\	-nes	4cc\	-nes	4aa\	-nes
=6	=6	=6	=6	=6	=6	=6	=6
8.D\	po-	8.c\	po-	8.a\	po-	8ff#\	po-
.	.	.	.	.	.	8ff#\	-pu-
16D\	-pu-	16c\	-pu-	16a\	-pu-	.	.
4GG/	-li,	4B\	-li,	4g\	-li,	4gg\	-li,
2r	.	4r	.	4r	.	4r	.
.	.	4B\	lau-	4g\	lau-	4dd\	lau-
=7	=7	=7	=7	=7	=7	=7	=7
4r	.	4B\	-da-	4g#X\	-da-	4dd\	-da-
4D\	lau-	4c\	-te	4a\	-te	4dd\	-te,
4F#\	-da-	4r	.	4r	.	4r	.
4D\	-te	4A\	lau-	4f#\	lau-	4dd\	lau-
=8	=8	=8	=8	=8	=8	=8	=8
4r	.	4A#X\	-da-	4f#\	-da-	4dd\	-da-
4GG/	lau-	4B\	-te	4gn\	-te	4dd\	-te
4BB/	-da-	4r	.	4r	.	4r	.
8GG/	-te,	4d\	lau-	4b\	lau-	4gg\	lau-
8G\	lau-	.	.	.	.	.	.
!LO:LB:g=original	!	!	!	!	!	!	!
=9	=9	=9	=9	=9	=9	=9	=9
4.E\	-da-	4.e\	-da-	4.b\	-da-	4.gg\	-da-
8E\	-te	8e\	-te	8b\	-te	8gg\	-te
4D\	om-	4e\	e-	4b-X\	om-	4gg\	om-
4D\	-nes	4e\	-um	4b-\	-nes	4gg\	-nes
!	!	!	!	!LO:LB:g=original	!	!LO:LB:g=original	!
=10	=10	=10	=10	=10	=10	=10	=10
2C#X/	gen-	2e\	om-	2a\	gen-	2aa\	gen-
!	!	!LO:LB:g=original	!	!	!	!	!
4D/	-tes,	4d\	-nes,	4a\	-tes,	4ff#\	-tes
4r	.	4A\	lau-	4f#\	lau-	4dd\	lau-
=11	=11	=11	=11	=11	=11	=11	=11
1r	.	4B\	-da-	4g\	-da-	8dd\L	-da-
.	.	.	.	.	.	8dd#X\J	.
.	.	8B\	-te	8g\	-te	4.ee\	.
.	.	8B\	lau-	8g#X\	lau-	.	.
.	.	4c#X\	-da-	4a\	-da-	.	.
.	.	.	.	.	.	8dd#\	.
.	.	8c#\	-te	8a\	-te	8ee\	-te
.	.	8c#\	lau-	8a#X\	lau-	8ee\	lau-
=12	=12	=12	=12	=12	=12	=12	=12
4r	.	4d\	-da-	4b\	-da-	8ff#\L	-da-
.	.	.	.	.	.	8gg\J	.
4BB/	lau-	4d\	-te	4b\	-te,	8gg\	-te
.	.	.	.	.	.	8r	.
8BB/L	-da-	4r	.	4r	.	4r	.
8BB-X/J	.	.	.	.	.	.	.
8BB-/	-te	8r	.	8r	.	8r	.
8BB-/	lau-	8d\	lau-	8dd\	lau-	8gg\	lau-
=13	=13	=13	=13	=13	=13	=13	=13
4AA/	-da-	4e\	-da-	4cc#X\	-da-	4gg\	-da-
4AA/	-te	4e\	-te	4cc#\	-te	4gg\	-te
4r	.	4r	.	4r	.	4r	.
4AA/	lau-	4e\	lau-	4cc#\	lau-	4gg\	lau-
=14	=14	=14	=14	=14	=14	=14	=14
2AA#X/	-da-	2e\	-da-	2cc#X\	-da-	2ff#\	-da-
4BB/	-te,	4d\	-te	4b\	-te	4ff#\	-te
8BB/	e-	8d\	e-	8b\	e-	8ff#\	e-
8BB/	-um	8d\	-um	8b\	-um	8ff#\	-um
!LO:LB:g=original	!	!	!	!LO:LB:g=original	!	!LO:LB:g=original	!
=15	=15	=15	=15	=15	=15	=15	=15
4.GG/	om-	4.d\	om-	4.b\	om-	4.ee\	om-
8GG/	-nes	8d\	-nes	8b\	-nes	8ee\	-nes
!	!	!LO:LB:g=original	!	!	!	!	!
4AA/	po-	4d\	po-	4a\	po-	4.ee\	po-
4AA/	-pu-	4c#X\	-pu-	4g\	-pu-	.	.
.	.	.	.	.	.	8ff#\	-pu-
=16	=16	=16	=16	=16	=16	=16	=16
1D;	-li,	1A;	-li,	1f#;	-li,	1dd;	-li.
=17||	=17||	=17||	=17||	=17||	=17||	=17||	=17||
4BB-X/	Quo-	4B-X\	Quo-	4fn\	Quo-	4dd\	Quo-
8BB-/	-ni-	8B-\	-ni-	8f#X\	-ni-	8dd\	-ni-
8BB-/	-am	8B-\	-am	8f#\	-am	8dd\	-am
.	.	.	.	.	.	8qqffn/	.
4BB-/	con-	4B-\	con-	4g\	con-	4ee-X\	con-
4BB-/	-fir-	4B-\	-fir-	4fn\	-fir-	4dd\	-fir-
=18	=18	=18	=18	=18	=18	=18	=18
4.BB-X/	-ma-	4.G/	-ma-	4.e\	-ma-	4.cc#X\	-ma-
8BB-/	-ta	8G/	-ta,	8e\	-ta	8cc#\	-ta
4BB-/	est	4A/	est	4e-X\	est	4ccn\	est
8BB-/	su-	8A/	su-	8e-\	su-	8dd\	su-
8BB-/	-per	8A/	-per	8e-\	-per	8cc\	-per
=19	=19	=19	=19	=19	=19	=19	=19
4BB-X/	nos	4B-X\	nos,	4d\	nos	4b-X\	nos
4r	.	4B-\	mi-	4r	.	4dd\	mi-
4r	.	4d\	-se-	4r	.	4ffn\	-se-
4A-X\	mi-	4d\	-ri-	4a-X\	mi-	4ff\	-ri-
!LO:LB:g=original	!	!	!	!	!	!LO:LB:g=original	!
=20	=20	=20	=20	=20	=20	=20	=20
4G\	-se-	4.d\	-cor-	4g\	-se-	4.ffn\	-cor-
4BBn/	-ri-	.	.	4g\	-ri-	.	.
.	.	8d\	-di-	.	.	8ff\	-di-
!	!	!	!	!LO:LB:g=original	!	!	!
4C/	-cor-	2c\	-a	4g\	-cor-	2ee-X\	-a
8G-X\	-di-	.	.	8g-X\	-di-	.	.
8G-\	-a	.	.	8g-\	-a	.	.
!	!	!LO:LB:g=original	!	!	!	!	!
=21	=21	=21	=21	=21	=21	=21	=21
4Fn\	e-	2c\	e-	2fn\	e-	2ee-X\	e-
4AAn/	.	.	.	.	.	.	.
4BB-X/	-jus,	4B-X\	-jus	4f\	-jus,	4dd\	-jus,
4BB-/	et	4Fn/	et	4d\	et	4b-X\	et
=22	=22	=22	=22	=22	=22	=22	=22
4BB-X/	ve-	4G/	ve-	4e-X\	ve-	4cc\	ve-
8BB-/	-ri-	8A-X\	-ri-	8fn\	-ri-	8dd\	-ri-
8BB-/	-tas	8A-\	-tas	8f\	-tas	8dd\	-tas
4BB-/	Do-	8B-X\	Do-	8g\	Do-	8ee-X\	Do-
.	.	8B-\	-mi-	8g\	-mi-	8ee-\	-mi-
8BB-/	-mi-	4B-\	-ni	4f\	-ni	4dd\	-ni
8BB-/	-ni	.	.	.	.	.	.
=23	=23	=23	=23	=23	=23	=23	=23
4.E-X\	ma-	4.B-X\	ma-	4.e-X\	ma-	4.gg\	ma-
8E-\	-net	8e-X\	-net	8b-X\	-net	8gg\	-net
4E-\	in	4e-\	in	4b-\	in	4gg\	in
4E-\	e-	4B-\	e-	4g\	e-	4gg\	e-
!LO:LB:g=original	!	!	!	!	!	!	!
=24	=24	=24	=24	=24	=24	=24	=24
*2\right	*	*	*	*	*	*	*
2E-X\	-ter-	2An\	-ter-	2fn\	-ter-	4.cc\	-ter-
.	.	.	.	.	.	16dd\LL	.
.	.	.	.	.	.	16ee-X\JJ	.
4D\	-num,	4B-X\	-num,	4f\	-num	4ffn\	-num,
4r	.	8Bn\	ma-	8g\	in	8dd\	in
.	.	8B\	-net	8g\	e-	8dd\	e-
!	!	!	!	!LO:LB:g=original	!	!LO:LB:g=original	!
=25	=25	=25	=25	=25	=25	=25	=25
2r	.	4c\	in	4c\	-ter-	4ee-X\	-ter-
.	.	4A\	.	4fn\	.	4cc\	.
4r	.	4B-X\	.	4B-X/	-num	4dd\	-num
8E-X\	in	4G/	e-	8e-X\	in	8b-X\	in
8E-\	e-	.	.	8e-\	e-	8b-\	e-
!	!	!LO:LB:g=original	!	!	!	!	!
=26	=26	=26	=26	=26	=26	=26	=26
4AA/	-ter-	4G/	-ter-	4e-X\	-ter-	4cc\	-ter-
4D\	.	4F#X/	.	4d\	.	4a\	.
4GG/	-num,	4G/	-num	4d\	num	4b-X\	-num
8BB-X/	in	8G/	in	8d\	in	8g\	in
8BB-/	e-	8G/	e-	8d\	e-	8g\	e-
=27	=27	=27	=27	=27	=27	=27	=27
2C/	-ter-	1G	-ter-	2e-X\	-ter-	2a\	-ter-
!	!	!	!	!LO:SIC:v:s=2fn	!	!	!
2D\	.	.	.	2f#\	.	2b\	num,
=28	=28	=28	=28	=28	=28	=28	=28
4E-X\	-num	4G/	-num	4g\	-num	4cc\	in
2E-\	in	2B-X\	in	2g\	in	2cc#X\	.
4D\	e-	4B-\	e-	4g\	e-	4dd\	e-
=29	=29	=29	=29	=29	=29	=29	=29
2C#X/	-ter-	2B-X\	-ter-	2g\	-ter-	2ee\	-ter-
2Cn/	.	2d\	-num	2a\	.	2ff#X\	.
!LO:LB:g=original	!	!	!	!	!	!	!
=30	=30	=30	=30	=30	=30	=30	=30
4BB-X/	-num,	4d\	in	4g\	-num	4gg\	-num,
8BBn/	in	4d\	e-	8g\	in	8ffn\	in
8BB/	e-	.	.	8g\	e-	8ff\	ae-
!	!	!	!	!LO:LB:g=original	!	!LO:LB:g=original	!
4C/	-ter-	4cn\	-ter-	4g\	-ter-	4ee-X\	-ter-
4D/	.	4G/	-num	4fn\	.	4bn\	.
=31	=31	=31	=31	=31	=31	=31	=31
4E-X\	-num	4G/	in	4g\	-num	4cc\	-num,
2E-\	in	2A\	.	2g\	in	2cc#X\	in
4E-\	e-	4A\	e-	4g\	e-	4cc#\	e-
=32	=32	=32	=32	=32	=32	=32	=32
1D	-ter-	4A\	-ter-	4f#X\	-ter-	4dd\	-ter-
.	.	4B-X\	.	4g\	.	4cc#X\	.
!	!	!LO:LB:g=original	!	!	!	!	!
.	.	4A\	.	4f#\	.	4dd\	.
.	.	4B-X\	.	4g\	.	4cc#\	.
=33	=33	=33	=33	=33	=33	=33	=33
2.D;\	-num	2.A;\	-num,	2.f#X;\	-num.	2.dd;\	-num.
4GG/	Lau-	4Bn\	Lau-	4g\	Lau-	4dd\	Lau-
=34	=34	=34	=34	=34	=34	=34	=34
2.GG/	-da-	2.B\	-da-	2.g\	-da-	2.dd\	-da-
4GG/	-te	4B\	-te	4g\	-te	4dd\	-te
=35	=35	=35	=35	=35	=35	=35	=35
4.GG/	Do-	4.B\	Do-	4.g\	Do-	4dd\	Do-
.	.	.	.	.	.	8dd\	-mi-
8GG/	-mi-	8B\	-mi-	8g\	-mi-	8dd\	-num
4GG/	-num	4B\	-num	4g\	-num	4.dd\	om-
8GG/	om-	8B\	om-	8g\	om-	.	.
8GG/	-nes	8B\	-nes	8g\	-nes	8dd\	-nes
!LO:LB:g=original	!	!	!	!LO:LB:g=original	!	!	!
=36	=36	=36	=36	=36	=36	=36	=36
4BB/	gen-	4B\	gen-	4a\	gen-	4dd#X\	gen-
4E\	-tes,	4B\	-tes,	4g\	-tes	4ee\	-tes
!	!	!	!	!	!	!LO:LB:g=original	!
4r	.	4r	.	4r	.	4r	.
4C/	lau-	4c\	lau-	4g\	lau-	4ee\	lau-
=37	=37	=37	=37	=37	=37	=37	=37
2.C/	-da-	2.c\	-da-	2.g\	-da-	2.ee\	-da-
4C/	-te	4c\	-te	4g\	-te	4ee\	-te
=38	=38	=38	=38	=38	=38	=38	=38
4.C/	e-	4.c\	e-	4.g\	e-	4.ee\	e-
8C/	-um	8c\	-um	8g\	-um	8ee\	-um
!	!	!LO:LB:g=original	!	!	!	!	!
4C/	om-	4c\	om-	4g\	om-	4ee\	om-
4AA/	-nes	4e\	-nes	4cc\	-nes	4aa\	-nes
=39	=39	=39	=39	=39	=39	=39	=39
8.D\	po-	8.c\	po-	8.a\	po-	8ff#\	po-
.	.	.	.	.	.	8ff#\	-pu-
16D\	-pu-	16c\	-pu-	16a\	-pu-	.	.
4GG/	-li	4B\	-li,	4g\	-li	4gg\	-li
2r	.	4r	.	4r	.	4r	.
.	.	4B\	lau-	4g\	lau-	4dd\	lau-
=40	=40	=40	=40	=40	=40	=40	=40
4r	.	4B\	-da-	4g#X\	-da-	4dd\	-da-
4D\	lau-	4c\	-te	4a\	-te	4dd\	-te
4F#\	-da-	4r	.	4r	.	4r	.
4D\	-te	4A\	lau-	4f#\	lau-	4dd\	lau-
=41	=41	=41	=41	=41	=41	=41	=41
4r	.	4A#X\	-da-	4f#\	-da-	4dd\	-da-
4GG/	lau-	4B\	-te	4g\	-te	4dd\	-te
!LO:LB:g=original	!	!	!	!	!	!	!
4BB/	-da-	4r	.	4r	.	4r	.
8GG/	-te	4d\	lau-	4b\	lau-	4gg\	lau-
8G\	lau-	.	.	.	.	.	.
!	!	!	!	!LO:LB:g=original	!	!	!
=42	=42	=42	=42	=42	=42	=42	=42
4.E\	-da-	4.e\	-da-	4.b\	-da-	4.gg\	-da-
8E\	-te	8e\	-te	8b\	-te	8gg\	-te
!	!	!	!	!	!	!LO:LB:g=original	!
4D\	om-	4e\	om-	4b-X\	om-	4gg\	om-
!LO:SIC:v:l:s=nes	!	!	!	!	!	!	!
4D\	-pes	4e\	-nes	4b-\	-nes	4gg\	-nes
=43	=43	=43	=43	=43	=43	=43	=43
2C#X/	gen-	2e\	gen-	2a\	gen-	2gg\	gen-
!	!	!LO:LB:g=original	!	!	!	!	!
4D/	-tes	4d\	-tes,	4a\	-tes	4ff#\	-tes
4Cn/	lau-	4A\	lau-	4f#\	lau-	4dd\	lau-
=44	=44	=44	=44	=44	=44	=44	=44
4.BB/	-da-	8G\L	-da-	4g\	-da-	8dd\L	-da-
.	.	8d\J	.	.	.	8ff#\J	.
.	.	8d\	-te,	8g\	-te	4.gg\	-te
8GG/	.	8d\	lau-	8b\	lau-	.	.
4.C/	.	4e\	-da-	4cc\	-da-	.	.
.	.	.	.	.	.	8ee\	lau-
.	.	4e\	-te	4cc\	-te	8aa\	-da-
8AA/	-te	.	.	.	.	8aa\	-te
=45	=45	=45	=45	=45	=45	=45	=45
4D\	e-	4c\	e-	4a\	e-	4ff#\	e-
4D\	-um	4c\	-um	4a\	-um	4ff#\	-um
4.D#X\	om-	4.c\	om-	4.a\	om-	4ff#\	om-
.	.	.	.	.	.	4ff#\	-nes
8D#\	-nes	8c\	-nes	8a\	-nes	.	.
=46	=46	=46	=46	=46	=46	=46	=46
8.E\	po-	8.B\	po-	8g\	po-	8.gg\	po-
.	.	.	.	8b\	-pu-	.	.
16E\	-pu-	16e\	-pu-	.	.	16gg\	-pu-
8E\	-li,	8e\	-li	8b\	-li	8gg\	-li
8D\	lau-	8B\	lau-	16r	.	16r	.
.	.	.	.	16g#X\	lau-	16ffn\	lau-
!LO:LB:g=original	!	!	!	!	!	!	!
2D\	-da-	2B\	-da-	2g#\	-da-	2ff\	-da-
!	!	!	!	!LO:PB:g=original	!	!LO:PB:g=original	!
=47	=47	=47	=47	=47	=47	=47	=47
*^	*	*	*	*	*	*	*
4C/	4ryy	-te,	4c\	-te,	4a\	-te	4ee\	-te
8C/	4ryy	om-	8e\	om-	8cc\	om-	8aa\	om-
8C/	.	-nes	8e\	-nes	8cc\	-nes	8aa\	-nes
4D/	4D\	po-	4d\	po-	4b\	po-	4dd\	po-
4D\	4ryy	-pu-	4c\	-pu-	4a\	-pu-	4ff#X\	-pu-
*v	*v	*	*	*	*	*	*	*
!	!	!LO:LB:g=original	!	!	!	!	!
=48	=48	=48	=48	=48	=48	=48	=48
4GG/	-li,	4B\	-li,	4g\	-li	4gg\	-li,
!LO:TX:t=P:problem:7 taktów wykreślonych	!	!LO:TX:t=P:problem:7 taktów wykreślonych	!	!	!	!	!
4r	.	4r	.	4r	.	4r	.
4GG/	om-	4G/	om-	4d\	om-	4b\	om-
4GG/	-nes	4G/	-nes	4d\	-nes	4b\	-nes
=49	=49	=49	=49	=49	=49	=49	=49
2.GG/	po-	2.G/	po-	2.d\	po-	2.b\	po-
4GG/	-pu-	4G/	-pu-	4d\	-pu-	4b\	-pu-
=50	=50	=50	=50	=50	=50	=50	=50
1GG;	-li.	1G	-li.	1d;	-li.	1b;	-li.
==	==	==	==	==	==	==	==
*-	*-	*-	*-	*-	*-	*-	*-
!!!system-decoration: [(s1,s2,s3,s4)]
!!!ENC: Marta Lawrence
!!!END: 2021-01-19
!!!ENC:Krzysztof Stępień
!!!END:2021-01-18
